X:1
T:Doffin' Mistress
M:3/4
L:1/8
K:C
 GEG| c2 GF ED| C2 cc cd| d2 ec BA| G3 Ge d| c2 BG AB| c2 BG AA|A-B cA GG|\
 E2 DC EG| c2 G/2 F3/2 DB,| C3|
